!!!!SEGMENT: pl-kk--kk-i-382--076_anonim--offertorium-nro-17.krn
!!!cenid: 18xx:1578
!!!COM: Anonim
!!!COM-rismID: pe30004985
!!!CDT:
!!!CNT:
!!!OTL: Offertorium Nro 17
!!!PDT:
!!!AGN: Sacred
!!!SMS-siglum: PL-Kk
!!!SMS-shelfmark: Kk.I.382
!!!SMS-shelfwork: 062 W
!!!SMS-variant:
!!!SMS-altvar:
!!!NIFC-rismSourceID: 1001139027
!!!NIFC-rismChildID: 1001142260
!!!NIFC-islandoraID: pl-kk:6162
!!!URL-pdf-islandora: https://repozytorium.nifc.pl/islandora/object/pl-kk%3A6162/datastream/PDF/view
!!!URL-scan: https://polish.musicsources.pl/pl/lokalizacje/galeria/rekopisy/5994 @EN{Scan on Polish Music Sources Website} @PL{Skany w portalu Dziedzictwo Muzyki Polskiej w otwartym dostępie}
!!!ONB-nifc: UWAGA: Offertoria od skanu 0041 (S/T1), 0113 (T2), 0185 (A/B1), 0262 (B2)
!!!ONB-nifc: UWAGA: obsada: S/T1, A/B1, T2, B2. Skany 0047, 0192, 0119, 0269
!!!AIN: 1 alto 1 bass 2 tenor
!!!key:
**kern	**text	**dynam	**kern	**text	**kern	**text	**kern	**text
*part4	*part4	*part4	*part3	*part3	*part2	*part2	*part1	*part1
*staff4	*staff4	*	*staff3	*staff3	*staff2	*staff2	*staff1	*staff1
*Ibass	*	*	*Itenor	*	*Ialto	*	*Itenor	*
*I"Basso II	*	*	*I"Tenore II	*	*I"Alto vel Basso I	*	*I"Soprano vel Tenore I	*
*I'B 2	*	*	*I'T 2	*	*I'A vel B 1	*	*I'S vel T 1	*
*clefF4	*	*	*clefC4	*	*clefC3	*	*clefC1	*
*k[]	*	*	*k[]	*	*k[]	*	*k[]	*
*C:	*	*	*C:	*	*C:	*	*C:	*
*M4/4	*	*	*M4/4	*	*M4/4	*	*M4/4	*
*met(C.)	*	*	*met(c|)	*	*met(C.)	*	*met(C.)	*
=1	=1	=1	=1	=1	=1	=1	=1	=1
*all\right	*	*	*all\right	*	*all\right	*	*all\right	*
!	!	!	!	!	!	!	!LO:TX:a:t=1.	!
!LO:TX:a:t=Nro. 17.\n in C.	!	!LO:DY:b:t=p.	!LO:TX:a:t=Nro. 17.	!	!LO:TX:a:t=Nro. 17.	!	!LO:TX:a:t=Nro. 17.	!
1c	Re-	p	(1c	Re-	[1c	Re-	1r	.
=2	=2	=2	=2	=2	=2	=2	=2	=2
*2\right	*	*	*	*	*	*	*	*
2c\	-gi	.	4A\	.	1c]	.	1e	Re-
!	!	!LO:DY:b:t=f.	!	!	!	!	!	!
.	.	f	4B\)	.	.	.	.	.
*	*	*	*2\right	*	*	*	*	*
2A\	re-	.	[2c\	-gi-	.	.	.	.
=3	=3	=3	=3	=3	=3	=3	=3	=3
1G	-gi-	.	2c\]	.	1d	-gi-	1g	-gi-
.	.	.	2B\	-na	.	.	.	.
=4	=4	=4	=4	=4	=4	=4	=4	=4
2C/	-na	.	(2c\	Ce-	1c	-na	2e/	-na
*	*	*	*	*	*	*	*2\right	*
[2c\	ce-	.	2e\)	.	.	.	2ee\	ce-
=5	=5	=5	=5	=5	=5	=5	=5	=5
2c\]	.	.	(4d\	-li	1d	Ce-	(4ff\	-li
.	.	.	4c\)	.	.	.	4ee\)	.
4B\	-li	.	(4d\	le-	.	.	(4ff\	le-
4B\	le-	.	4e\)	.	.	.	4gg\)	.
=6	=6	=6	=6	=6	=6	=6	=6	=6
4c\	-ta-	.	2.c\	-ta-	1e	-li	(4ee\	-ta-
4B\	.	.	.	.	.	.	4dd\	.
4A\	.	.	.	.	.	.	4cc\	.
4G\	.	.	4G/	.	.	.	4b\	.
!LO:LB:g=original	!	!	!	!	!	!	!	!
=7	=7	=7	=7	=7	=7	=7	=7	=7
4F\	.	.	4A/	.	1f	le-	2a\	.
4E\	.	.	4G/	.	.	.	.	.
2D\	.	.	4A/	.	.	.	2dd\	.
!	!	!	!LO:TX:b:t=V&colon;S&colon;	!	!	!	!	!
.	.	.	4F/	.	.	.	.	.
!	!	!	!LO:PB:g=original	!	!	!	!	!
=8	=8	=8	=8	=8	=8	=8	=8	=8
2C/	-re	.	2G/	-re	(1e	-ta-	4dd\	.
.	.	.	.	.	.	.	8cc\L	.
.	.	.	.	.	.	.	8b\J	.
2C/	le-	.	2G/	le-	.	.	2cc\	.
!	!	!	!	!	!	!	!LO:LB:g=original	!
=9	=9	=9	=9	=9	=9	=9	=9	=9
1G	-ta-	.	1G	-ta-	1d)	.	4cc\	.
.	.	.	.	.	.	.	8b\L	.
.	.	.	.	.	.	.	8a\J	.
.	.	.	.	.	.	.	2b\)	.
=10	=10	=10	=10	=10	=10	=10	=10	=10
2C/	-re	.	2G/	-re	1c	-re,	1cc	-re
4c\	al-	.	(4e\	al-	.	.	.	.
4B\	.	.	4d\)	.	.	.	.	.
=11	=11	=11	=11	=11	=11	=11	=11	=11
4A\	.	.	(4c\	-le-	1f	al-	2r	.
4G\	.	.	4B\	.	.	.	.	.
2F\	.	.	2A\)	.	.	.	[2cc\	al-
=12	=12	=12	=12	=12	=12	=12	=12	=12
1G	-le-	.	1G	lu-	(1d	-le-	2cc\]	.
.	.	.	.	.	.	.	[2b\	-le-
=13	=13	=13	=13	=13	=13	=13	=13	=13
1A	-lu-	.	1c	-ja	(1c)	.	2b\]	.
.	.	.	.	.	.	.	2a\	-lu-
=14	=14	=14	=14	=14	=14	=14	=14	=14
2.G\	-ja	.	2.Bn\	al-	1d)	.	(4b\	-ja
.	.	.	.	.	.	.	4cc\)	.
.	.	.	.	.	.	.	[2dd\	al-
4F\	.	.	4A\	.	.	.	.	.
=15	=15	=15	=15	=15	=15	=15	=15	=15
2.E\	al-	.	1G	-le-	(1e	-lu-	2dd\]	.
.	.	.	.	.	.	.	[2cc\	-le-
4F\	-le-	.	.	.	.	.	.	.
!LO:LB:g=original	!	!	!	!	!	!	!	!
=16	=16	=16	=16	=16	=16	=16	=16	=16
!	!	!	!LO:TX:b:t=P:problem=tekst poprawiany	!	!	!	!	!
1G	-lu-	.	1G	-lu-	1d)	.	2cc\]	.
.	.	.	.	.	.	.	2b\	-lu-
!	!	!	!	!	!LO:LB:g=original	!	!	!
=17	=17	=17	=17	=17	=17	=17	=17	=17
2C/	-ia	.	2c\	-ja	[1c	-ja	1cc	-ja
[2c\	qui-	.	[2e\	qui-	.	.	.	.
=18	=18	=18	=18	=18	=18	=18	=18	=18
2c\]	.	.	2e\]	.	1c]	.	2g\	qui-
(4c\	-ia	.	4e\	-ja	.	.	2g\	-a
4B\)	.	.	4d\	.	.	.	.	.
!	!	!	!LO:LB:g=original	!	!	!	!LO:LB:g=original	!
=19	=19	=19	=19	=19	=19	=19	=19	=19
1A	qui-	.	1c	qui-	1c	Qui-	1a	qui-
=20	=20	=20	=20	=20	=20	=20	=20	=20
2G\	-a	.	2B\	-a	1g	-a	2b\	-a
2C/	quem	.	2c\	quem	.	.	[2gg\	quem
=21	=21	=21	=21	=21	=21	=21	=21	=21
(4F\	me-	.	(4A\	me-	(1a	quem	2gg\]	.
4G\)	.	.	4B\)	.	.	.	.	.
(4A\	-ru-	.	(4c\	-ru-	.	.	[2ff\	me-
4B\)	.	.	4d\)	.	.	.	.	.
=22	=22	=22	=22	=22	=22	=22	=22	=22
2c\	-i-	.	2c\	-i-	1g)	.	2ff\]	.
4C/	-sti	.	4c\	-sti	.	.	[2ee\	-ru-
4C/	por-	.	4c\	por-	.	.	.	.
!LO:LB:g=original	!	!	!	!	!	!	!	!
=23	=23	=23	=23	=23	=23	=23	=23	=23
4D\	-ta-	.	1A	-ta-	(1f	me-	2ee\]	.
4E\	.	.	.	.	.	.	.	.
4F\	.	.	.	.	.	.	[2dd\	-i-
4G\	.	.	.	.	.	.	.	.
=24	=24	=24	=24	=24	=24	=24	=24	=24
4A\	.	.	2A\	-re	1e)	.	2dd\]	.
4G\	.	.	.	.	.	.	.	.
4A\	.	.	2A\	quem	.	.	[2cc\	-sti
4E\	.	.	.	.	.	.	.	.
=25	=25	=25	=25	=25	=25	=25	=25	=25
4F\	.	.	2A\	me-	(1d	-ru-	2cc\]	.
4D\	.	.	.	.	.	.	.	.
4G\	.	.	2G\	-ru-	.	.	2b\	por-
4F\	.	.	.	.	.	.	.	.
=26	=26	=26	=26	=26	=26	=26	=26	=26
4E\	.	.	2G/	-i-	1c)	.	[1cc	-ta-
4D\	.	.	.	.	.	.	.	.
4E\	.	.	4G/	-sti	.	.	.	.
4C/	.	.	4G/	por-	.	.	.	.
!	!	!	!LO:LB:g=original	!	!	!	!	!
=27	=27	=27	=27	=27	=27	=27	=27	=27
1G	.	.	1G	-ta-	1d	-i-	2cc\]	.
.	.	.	.	.	.	.	2b\	.
=28	=28	=28	=28	=28	=28	=28	=28	=28
2C/	-re	.	2G/	-re	1e	-sti	2cc\	-re
4c\	al-	.	(4e\	por-	.	.	2g\	por-
4B\	.	.	4d\)	.	.	.	.	.
!	!	!	!	!	!	!	!LO:LB:g=original	!
=29	=29	=29	=29	=29	=29	=29	=29	=29
4A\	.	.	4c\	-ta-	(1f	por-	4a\	-ta-
4G\	.	.	4B\	.	.	.	4b\	.
2F\	-le-	.	2A\	.	.	.	[2cc\	.
!LO:LB:g=original	!	!	!	!	!	!	!	!
=30	=30	=30	=30	=30	=30	=30	=30	=30
1G	-lu-	.	1G	.	1d)	.	2cc\]	.
.	.	.	.	.	.	.	2b\	.
=31	=31	=31	=31	=31	=31	=31	=31	=31
2E\	-ia	.	2G/	re	(1g	-ta-	1cc	-re
[2A\	al-	.	2c\	por-	.	.	.	.
=32	=32	=32	=32	=32	=32	=32	=32	=32
4A\]	.	.	[1c	-ta-	1c	.	4cc\	al-
4G\	.	.	.	.	.	.	4b\	.
4F\	.	.	.	.	.	.	4a\	.
4E\	.	.	.	.	.	.	4g\	.
=33	=33	=33	=33	=33	=33	=33	=33	=33
2D\	.	.	2c\]	.	1d)	.	2f/	.
!	!	!	!	!	!	!	!	!LO:MO:mod=-le-
4G\	.	.	2B\	.	.	.	2g/	-lu-
4F\	.	.	.	.	.	.	.	.
=34	=34	=34	=34	=34	=34	=34	=34	=34
4E\	.	.	2c\	-re	1c	-re,	1g	-lu-
4D\	.	.	.	.	.	.	.	.
4C/	.	.	(4e\	al-	.	.	.	.
4BB/	.	.	4d\)	.	.	.	.	.
!	!	!	!	!	!LO:LB:g=original	!	!	!
=35	=35	=35	=35	=35	=35	=35	=35	=35
4AA/	.	.	4c\	-le-	1f	al-	2a\	-ja
4GG/	.	.	4B\	.	.	.	.	.
2FF/	.	.	2A\	.	.	.	[2cc\	al-
=36	=36	=36	=36	=36	=36	=36	=36	=36
1GG	.	.	(1G	-lu-	(1d	-le-	2cc\]	.
.	.	.	.	.	.	.	2b\	-le-
=37	=37	=37	=37	=37	=37	=37	=37	=37
1AA	-le-	.	1c)	.	1c	.	2a\	-lu-
.	.	.	.	.	.	.	[2cc\	.
=38	=38	=38	=38	=38	=38	=38	=38	=38
1GG	-lu-	.	[>1G	-ja	1d	.	2cc\]	.
.	.	.	.	.	.	.	2b\	.
!	!	!	!	!	!	!	!LO:LB:g=original	!
=39	=39	=39	=39	=39	=39	=39	=39	=39
2C/	-ia	.	1G]	.	1e)	.	2cc\	-ja
!LO:LB:g=original	!	!	!	!	!	!	!	!
*clefF3	*	*	*	*	*	*	*	*
!LO:TX:t=P:problem=błędnie wpisany klucz sopranowy C1	!	!	!	!	!	!	!	!
4E/	re-	.	.	.	.	.	4cc\	re-
4E/	-sur-	.	.	.	.	.	4cc\	-sur-
!	!	!	!LO:LB:g=original	!	!	!	!	!
=40	=40	=40	=40	=40	=40	=40	=40	=40
!	!	!	!LO:TX:a:t=3.	!	!	!	!	!
2.A\	-re-	.	0r	.	(>1A	-lu-	2.ff\	-re-
4G\	-xit	.	.	.	.	.	4ee\	-xit
=41	=41	=41	=41	=41	=41	=41	=41	=41
(4F\	si-	.	.	.	1B)	.	(4dd\	si-
4A\)	.	.	.	.	.	.	4ff\)	.
(4G\	-cut	.	.	.	.	.	(4ee\	-cut-
4F\)	.	.	.	.	.	.	4dd\)	.
=42	=42	=42	=42	=42	=42	=42	=42	=42
4G\	di-	.	1r	.	1c	-ja	1ee	-di-
4G\	-xit,	.	.	.	.	.	.	.
*clefF4	*	*	*	*	*	*	*	*
4C/	re-	.	.	.	.	.	.	.
4C/	-sur-	.	.	.	.	.	.	.
=43	=43	=43	=43	=43	=43	=43	=43	=43
!	!	!	!	!	!LO:TX:b:t=1.	!	!	!
2.F\	-re-	.	2r	.	1r	.	1cc	-xit,
.	.	.	4c\	re-	.	.	.	.
4E\	-xit	.	4c\	-sur-	.	.	.	.
=44	=44	=44	=44	=44	=44	=44	=44	=44
(4D\	si-	.	2f\	-re-	1f	re-	2r	.
4F\)	.	.	.	.	.	.	.	.
(4E\	-cut	.	2F/	-xit	.	.	2ff\	re-
4D\)	.	.	.	.	.	.	.	.
!LO:LB:g=original	!	!	!	!	!	!	!	!
=45	=45	=45	=45	=45	=45	=45	=45	=45
1C	di-	.	1c	re-	1g	-sur-	2ff\	-su-
.	.	.	.	.	.	.	2ee\	-re-
=46	=46	=46	=46	=46	=46	=46	=46	=46
2FF/	-xit	.	1c	-sur-	(1a	-re-	1ff	-xit,
4FF/	re-	.	.	.	.	.	.	.
!	!	!	!	!	!	!	!LO:TX:b:t=V&colon;S&colon;	!
4FF/	-sur-	.	.	.	.	.	.	.
!	!	!	!	!	!	!	!LO:PB:g=original	!
=47	=47	=47	=47	=47	=47	=47	=47	=47
2C/	-re-	.	(2c\	-re-	1g	.	2ee\	si-
2GG/	-xit	.	2Bn\	.	.	.	2dd\	-cut
=48	=48	=48	=48	=48	=48	=48	=48	=48
*	*	*	*	*	*2\right	*	*	*
4D\	si-	.	1A)	.	2g\	.	1dd	di-
4D\	-cut	.	.	.	.	.	.	.
2D\	di-	.	.	.	2f#X\)	.	.	.
=49	=49	=49	=49	=49	=49	=49	=49	=49
2GG/	-xit	.	1G	-xit	2g\	-xit	1b	-xit
4G\	si-	.	.	.	[2g\	si-	.	.
(4F\	.	.	.	.	.	.	.	.
=50	=50	=50	=50	=50	=50	=50	=50	=50
2E\)	.	.	2c\	si-	2g\]	.	2r	.
2A\	-cut	.	2c\	-cut	2c\	-cut	[2cc\	si-
!	!	!	!	!	!LO:LB:g=original	!	!	!
=51	=51	=51	=51	=51	=51	=51	=51	=51
1G	di-	.	1G	di-	1d	di-	2cc\]	.
.	.	.	.	.	.	.	2b\	-cut
!LO:LB:g=original	!	!	!	!	!	!	!	!
=52	=52	=52	=52	=52	=52	=52	=52	=52
2C/	-xit	.	2G/	-xit	1c	-xit,	1cc	di-
(4c\	al-	.	(4e\	al-	.	.	.	.
(4B\)	.	.	4d\)	.	.	.	.	.
!	!	!	!LO:LB:g=original	!	!	!	!	!
=53	=53	=53	=53	=53	=53	=53	=53	=53
(4A\)	.	.	(4c\	-le-	(1f	al-	2cc\	-xit
4G\)	.	.	4B\	.	.	.	.	.
2F\	-le-	.	2A\)	.	.	.	[2cc\	al-
=54	=54	=54	=54	=54	=54	=54	=54	=54
1G	-lu-	.	1G	-lu-	1d)	.	2cc\]	.
.	.	.	.	.	.	.	2b\	-le-
=55	=55	=55	=55	=55	=55	=55	=55	=55
[>1C	-ja	.	1G	-ja	(1e	-le-	1cc	-lu-
=56	=56	=56	=56	=56	=56	=56	=56	=56
2C/]	.	.	[1e	al-	1g)	.	1g	-ja
2E\	al-	.	.	.	.	.	.	.
!	!	!	!	!	!	!	!LO:LB:g=original	!
=57	=57	=57	=57	=57	=57	=57	=57	=57
1A	-le-	.	2e\]	.	(1c	-lu-	2a\	al-
.	.	.	2c\	-le-	.	.	[2cc\	-le-
=58	=58	=58	=58	=58	=58	=58	=58	=58
1G	-lu-	.	1G	-lu-	1d)	.	2cc\]	.
.	.	.	.	.	.	.	2b\	-lu-
=59	=59	=59	=59	=59	=59	=59	=59	=59
[>1C	-ja.	.	[>1G	-ja	[1c	-ja	[1cc	-ja
=60	=60	=60	=60	=60	=60	=60	=60	=60
1C]	.	.	1G]	.	1c]	.	1cc]	.
!LO:LB:g=original	!	!	!	!	!	!	!	!
=61	=61	=61	=61	=61	=61	=61	=61	=61
!	!	!LO:DY:b:rj:t=p.	!LO:TX:a:t=1.	!	!	!	!LO:TX:a:t=1.	!
1G	O-	p	1r	.	1g	O-	1r	.
=62	=62	=62	=62	=62	=62	=62	=62	=62
(1C	-ra	.	1c	O-	1c	-ra	2r	.
.	.	.	.	.	.	.	[2cc\	O-
=63	=63	=63	=63	=63	=63	=63	=63	=63
2D\)	.	.	1G	-ra	(1d	pro-	2cc\]	.
!	!	!LO:DY:b:t=f.	!	!	!	!	!	!
.	.	f	.	.	.	.	.	.
2G\	o-	.	.	.	.	.	2b\	-ra
=64	=64	=64	=64	=64	=64	=64	=64	=64
2C/	-ra	.	1c	pro	1e)	.	1cc	o-
[2c\	pro	.	.	.	.	.	.	.
=65	=65	=65	=65	=65	=65	=65	=65	=65
2c\]	.	.	[1d	no-	1f	-no-	2a\	-ra
2B\	.	.	.	.	.	.	2g\	pro
=66	=66	=66	=66	=66	=66	=66	=66	=66
2c\	no-	.	2d\]	.	1e	-bis,	1g	no-
2C/	-bis	.	2c\	-bis	.	.	.	.
!	!	!	!LO:LB:g=original	!	!LO:LB:g=original	!	!LO:LB:g=original	!
=67	=67	=67	=67	=67	=67	=67	=67	=67
2G\	De-	.	2B\	De-	[1d	De-	1g	-bis
2G\	-um	.	[2c\	.	.	.	.	.
=68	=68	=68	=68	=68	=68	=68	=68	=68
1G	De-	.	2c\]	.	1d]	.	1g	De-
.	.	.	2B\	.	.	.	.	.
=69	=69	=69	=69	=69	=69	=69	=69	=69
1C	-um,	.	1c	-um	1c	-um	2g\	-um
.	.	.	.	.	.	.	2cc\	al-
!LO:LB:g=original	!	!	!	!	!	!	!	!
=70	=70	=70	=70	=70	=70	=70	=70	=70
!	!	!LO:DY:b:rj:t=p.	!	!	!	!	!	!
1C	Al-	p	2r	.	1c	al-	(4ee\	-le-
.	.	.	.	.	.	.	4ff\)	.
.	.	.	2c\	al-	.	.	(4ee\	-lu-
.	.	.	.	.	.	.	4dd\)	.
=71	=71	=71	=71	=71	=71	=71	=71	=71
1E	-le-	.	(4A/	-le-	(1e	-le-	4cc\	-ja
.	.	.	4G/)	.	.	.	4b\	.
.	.	.	(4A/	-lu-	.	.	4cc\	.
.	.	.	4B/)	.	.	.	4dd\	.
=72	=72	=72	=72	=72	=72	=72	=72	=72
4G\	-lu-	.	2G/	-ja	(1g)	.	2b\	.
4G\	-ja,	.	.	.	.	.	.	.
!	!	!LO:DY:b:t=f.	!	!	!	!	!	!
.	.	f	.	.	.	.	.	.
2C/	al-	.	(4e\	al-	.	.	2cc\	al-
.	.	.	4d\)	.	.	.	.	.
=73	=73	=73	=73	=73	=73	=73	=73	=73
(4F\	-le-	.	1c	-le-	1a	.	2a\	-le-
4G\)	.	.	.	.	.	.	.	.
(4A\	-lu-	.	.	.	.	.	[2ff\	.
4B\)	.	.	.	.	.	.	.	.
=74	=74	=74	=74	=74	=74	=74	=74	=74
2c\	-ja	.	(1c	-lu-	1g	.	2ff\]	.
2C/	al-	.	.	.	.	.	(4ee\	-lu-
.	.	.	.	.	.	.	4dd\)	.
!	!	!	!	!	!	!	!LO:LB:g=original	!
=75	=75	=75	=75	=75	=75	=75	=75	=75
4E\	.	.	1G)	.	1e	.	4cc\	-ja
4F\	.	.	.	.	.	.	4dd\	.
4G\	.	.	.	.	.	.	4cc\	.
4E\	.	.	.	.	.	.	4b\	.
=76	=76	=76	=76	=76	=76	=76	=76	=76
1A	.	.	1c	-ja	1c)	.	4a\	al-
.	.	.	.	.	.	.	4b\	.
.	.	.	.	.	.	.	4cc\	.
.	.	.	.	.	.	.	4dd\	.
=77	=77	=77	=77	=77	=77	=77	=77	=77
1G	-le-	.	2G/	al-	(2d\	-lu-	2b\	-le-
.	.	.	2G/	-le-	2e\	.	[2cc\	.
=78	=78	=78	=78	=78	=78	=78	=78	=78
1G	-lu-	.	1G	-lu-	1d)	.	2cc\]	.
.	.	.	.	.	.	.	2b\	-lu-
=79	=79	=79	=79	=79	=79	=79	=79	=79
!	!	!	!	!	!	!	!LO:TX:a:t=P:problem=poprawione ołówkiem na 1ee	!
[>1C	-ja.	.	0G	-ja.	[1c	-ja.	1cc	-ja.
=80	=80	=80	=80	=80	=80	=80	=80	=80
!	!	!	!	!	!	!	!LO:TX:a:t=P:problem=poprawione ołówkiem na 1ee	!
1C]	.	.	.	.	1c]	.	1cc	.
==	==	==	==	==	==	==	==	==
*-	*-	*-	*-	*-	*-	*-	*-	*-
!!!system-decoration: [(s1,s2,s3,s4)]
!!!RDF**kern: > = above
!!!ENC: Marta Lawrence
!!!END: 2021-02-12
!!!ENC: Marcin Jachim
!!!END: 2021-01-31
!!!YEC: Copyright 2022 Narodowy Instytut Fryderyka Chopina (https://polishscores.org)
!!!YEM: License CC-BY-4.0 (https://creativecommons.org/licenses/by/4.0)
